!!!ONB: MCCC : IRV0083_01 : Extracted Monophonic Melody
!!!COM: Vaughan Williams, Ralph
!!!OPR: Suite for viola
!!!OMV: 1
!!!SCT: nan
!!!ODT: 1934///
**kern
*IViola
*clefC3
*k[]
*C:
*M3/4
*MM66
16CL
16G
16AJ
16cL
16G
16B
16cJ
16eL
16G
16B
16eJ
=2
16fL
16C
16A
16cJ
16dL
16A
16B
16eJ
16fL
16A
16B
16gJ
=3
16aL
16c
16e
16fJ
16aL
16e
16f
16aJ
16bL
16f
16a
16bJ
=4
16gL
16B
16d
16eJ
16gL
16d
16e
16gJ
16aL
16e
16f
16aJ
=5
16fL
16C
16F
16AJ
16BL
16A
16B
16dJ
16fL
16A
16B
16dJ
=6
16aL
16e
16f
16aJ
16bL
16f
16a
16bJ
16ddL
16a
16b
16ddJ
*clefG2
=7
2.gg
=8
(4.ff
8ee
4dd
=9
2gg
4cc
=10
8ffL
8gg
8ff
8ee
8dd
8bJ
*clefC3
=11
16gL
16A
16B
16dJ
[4g
16g]L
16A
16e
16gJ
=12
[4a
16a]L
16e
16a
16ccJ
[8dL
32d]
32e
32f
32eJ
=13
16gL
16d
16e
16gJ
[4b
16b]L
16c
16g
16bJ
=14
[4cc
16cc]L
16a
16cc
16ddJ
16eeL
16g
16b
16eeJ
*clefG2
=15
16ffL
16a
16cc
16ddJ
16ffL
16gg
16ff
16eeJ
[4dd
=16
16dd]L
16ff
16ee
16ddJ
[4cc
16cc]L
16f
16cc
16eeJ
=17
16ddL
16f
16a
16ccJ
[4dd
16dd]L
16e
16g
16ddJ
=18
16ccL
16ee
16dd
16ccJ
16bL
16dd
16cc
16bJ
8aL
8dJ
*clefC3
=||19
*k[f#c#g#]
*A:
*M9/8
8eL
8e
8eJ
4e
8d
4c#
8d
=20
4c#
8B
4.A
4.F#
=21
*M3/4
16AL
16E
16F#
16AJ
16BL
16c#
16e
16f#J
16aL
16f#
16a
16cc#J
*clefG2
=22
*M9/8
8eeL
8ee
8eeJ
4ee
8dd
4cc#
8dd
=23
4cc#
8b
4.a
4.f#
*clefC3
=24
*M3/4
[4a
16a]L
16e
16f#
16aJ
[4cc#
=25
8cc#]L
8bJ
4.cc#
8b
=26
16r
16eeL
16cc#
16bJ
16aL
16ee
16cc#
16aJ
16g#L
16ee
16cc#
16g#J
=27
16f#L
16dd
16b
16aJ
16g#L
16b
16g#
16f#J
16g#L
16b
16f#
16eJ
=28
16dL
16b
16f#
16eJ
16dL
16a
16f#
16eJ
16dL
16a
16d
16c#J
=29
16BL
16f#
16d
16c#J
16BL
16e
16B
16AJ
16G#L
16ee
16b
16aJ
=30
16g#L
16b
16g#
16f#J
16g#L
16b
16g#
16f#J
16eL
16g#
16e
16dJ
=31
16eL
16g#
16e
16dJ
16c#L
16e
16c#
16BJ
16c#L
16e
16B
16AJ
=32
2.E
=33
4.F#
8G#
4A
=||34
*k[]
*C:
2E
4A
=35
8DL
8E
8F
8GJ
8AL
[8cJ
=36
16c]L
16A
16B
16dJ
16fL
16A
16B
16dJ
16fL
16A
16B
[16dJ
=37
16d]L
16A
16B
16dJ
16eL
16G
16A
16BJ
16dL
16B
16c
16aJ
=38
4.a
8g
4f
=39
4.g
8f
[4e-
=||40
*k[b-e-a-]
*E-:
16e-]L
16c
16d
16fJ
16a-L
16c
16e-
16fJ
16a-L
16b-
16cc
16b-J
=41
16a-L
16b-
16a-
16gJ
16fL
16A-
16c
16dJ
16fL
16A-
16c
16dJ
=42
16fL
16B-
16d
16e-J
[8fL
32f]
32d
32e-
32fJ
16gL
16c
16e-
16gJ
=43
8gL
8fJ
[4dd
16dd]L
16g
16b-
16ddJ
=44
[4ee-
16ee-]L
16f
16a-
16ee-J
16ddL
16a-
16g
16fJ
=45
[4d
16d]L
16f
16e-
16dJ
[4c
=46
8c]L
[8a-J
16a-]L
16c
16d
16fJ
[4g
=47
16g]L
16A-
16c
16e-J
16fL
16B-
16c
16dJ
16e-L
8d
16cJ
=||48
*k[]
*C:
2G
4A
=49
4G
4A
4c
=50
4d
4e
4g
=51
*M9/8
4.a
8ccL
8cc
8ccJ
4cc
8b
=52
4a
8b
4a
8g
4.f
=53
4.d
4.a
4.d
=54
*M3/4
4a
[4d
16d]L
16C
16D
16FJ
=55
16AL
16E
16F
16AJ
16BL
16A
16B
16cJ
16dL
16A
16B
16dJ
=56
16fL
16c
16d
16fJ
16aL
16c
16d
16fJ
16aL
16e
16f
16aJ
=57
[2cc
16cc]L
16g
16a
16ccJ
=58
[2cc
16cc]L
16g
16a
16ccJ
=59
16r
16dL
16e
16gJ
16aL
16d
16e
16aJ
16ccL
16g
16a
16ddJ
=60
2.ee;
==
*-
